X:918
T:Church Street Polka
S:The Chieftains
Z:Nigel Gatherer
M:2/4
L:1/8
K:G
d/c/ | BG  D>D | Ec cA/B/ | cE       F>E      | Dd  d/e/d/c/ |
       BG  D>D | Ec cA/B/ | c/B/A/G/ F/D/E/F/ | GB  G       :|
e/f/ | gg  ff  | c3- c/d/ | ee       dd       | B3- B/c/     |
       d>e dB  | A2 AB/A/ | 1 G>A Bc | d2 d :| 2 Gg fa | g2 g ||
<end>
<start>
